src/next/cmd/bg/sc_spelling.svg

<svg enable-background="new" height="16" width="16" xmlns="http://www.w3.org/2000/svg" xmlns:xlink="http://www.w3.org/1999/xlink"><linearGradient id="a" gradientUnits="userSpaceOnUse" x1="71.618464" x2="71.618464" y1="47.314688" y2=".642231"><stop offset="0" stop-color="#555"/><stop offset="1"/></linearGradient><linearGradient id="b"><stop offset="0" stop-color="#fff"/><stop offset="1" stop-color="#fff" stop-opacity="0"/></linearGradient><radialGradient id="c" cx="54.537579" cy="77.542084" fy="99.883759" gradientTransform="matrix(1.3537573 .00000006 -.00000005 1.0160126 -13.498529 18.259014)" gradientUnits="userSpaceOnUse" r="48.000004"><stop offset="0" stop-color="#66f515"/><stop offset="1" stop-color="#002e00"/></radialGradient><linearGradient id="d" gradientTransform="matrix(1.0320438 0 0 1.0327501 3.9492 21.033265)" gradientUnits="userSpaceOnUse" x1="89.090881" x2="89.090881" y1="103.89701" y2="30.849478"><stop offset="0" stop-color="#003100"/><stop offset="1" stop-color="#008c00"/></linearGradient><linearGradient id="e" gradientTransform="matrix(1.0320437 0 0 1.0327501 3.949175 21.033265)" gradientUnits="userSpaceOnUse" x1="83.324677" x2="83.324677" y1="24.0625" y2="89.99453"><stop offset="0" stop-color="#bfffbf"/><stop offset="1" stop-color="#bfffbf" stop-opacity="0"/></linearGradient><radialGradient id="f" cx="52.791927" cy="95.459297" fx="53.15992" fy="87.08094" gradientTransform="matrix(.5827558 .00000009 -.00000014 .9476925 29.156011 17.050894)" gradientUnits="userSpaceOnUse" r="52.000004"><stop offset="0" stop-color="#001400"/><stop offset="1" stop-color="#001400" stop-opacity="0"/></radialGradient><radialGradient id="g" cx="99.765625" cy="29.374895" gradientTransform="matrix(1.9646726 .00000034 -.00000104 5.9752716 -96.241137 -146.14811)" gradientUnits="userSpaceOnUse" r="3.015625" xlink:href="#b"/><radialGradient id="h" cx="99.765625" cy="29.374895" gradientTransform="matrix(1.9646726 .00000034 -.00000104 5.9752716 -167.24116 -126.14811)" gradientUnits="userSpaceOnUse" r="3.015625" xlink:href="#b"/><linearGradient id="i" gradientTransform="matrix(1.0320437 0 0 1.0327501 3.949175 16.902265)" gradientUnits="userSpaceOnUse" x1="87.533279" x2="77.137749" xlink:href="#b" y1="74.838577" y2="46.277084"/><linearGradient id="j" gradientTransform="matrix(1.0320437 0 0 1.0327501 3.949175 21.033265)" gradientUnits="userSpaceOnUse" x1="83.324677" x2="83.324677" xlink:href="#b" y1="24.0625" y2="69.837845"/><radialGradient id="k" cx="99.765625" cy="29.374895" gradientTransform="matrix(1.9646726 .00000034 -.00000104 5.9752716 -167.24116 -126.14811)" gradientUnits="userSpaceOnUse" r="3.015625"><stop offset="0" stop-color="#f0ff80"/><stop offset="1" stop-color="#f0ff80" stop-opacity="0"/></radialGradient><radialGradient id="l" cx="53.633381" cy="51.919601" gradientTransform="matrix(1.0961401 .0879121 -.1002304 1.2497316 1.059933 -18.687387)" gradientUnits="userSpaceOnUse" r="52.000004" xlink:href="#b"/><filter id="m"><feBlend in2="BackgroundImage" mode="lighten"/></filter><filter id="n" height="1.205783" width="1.364658" x="-.182329" y="-.102891"><feGaussianBlur stdDeviation=".45819706"/></filter><filter id="o" height="1.37026" width="1.20766" x="-.10383" y="-.18513"><feGaussianBlur stdDeviation=".45819702"/></filter><filter id="p"><feGaussianBlur stdDeviation="1.5891116"/></filter><g transform="matrix(.125 0 0 .125 .000003 0)"><g transform="matrix(.90735169 0 0 .90735169 11.469223 16.237221)"><g fill="none" stroke-linecap="round" stroke-linejoin="round"><path d="m54.393966 74.154282c-8.147999-8.350285-25.763139-26.404282-25.763139-26.404282l-12.630855 12.947999 38.393994 39.354851 57.606014-59.05285-12.632583-12.94714s-35.262002 36.147423-44.973431 46.101422z" filter="url(#p)" opacity=".502762" stroke="#004d00" stroke-width="11.526575" transform="matrix(1.0320437 0 0 1.0327501 3.9492 16.902265)"/><path d="m54.393966 74.154282c-8.147999-8.350285-25.763139-26.404282-25.763139-26.404282l-12.630855 12.947999 38.393994 39.354851 57.606014-59.05285-12.632583-12.94714s-35.262002 36.147423-44.973431 46.101422z" filter="url(#m)" opacity=".285714" stroke="url(#l)" stroke-width="7.748958" transform="matrix(1.0320437 0 0 1.0327501 3.9492 16.902265)"/><path d="m60.086153 93.485105c-8.409091-8.623758-26.588686-27.269024-26.588686-27.269024l-13.035596 13.372046 39.624282 40.643723 59.451927-60.986832-13.03738-13.37116s-36.391927 37.331253-46.414547 47.611247z" stroke="url(#d)" stroke-width="8"/></g><path d="m28.406226 44.03125c-.149888-.0024-.286582.01658-.4375.03125-.827192.08205-1.59533.427082-2.21875.96875l1.6875 9.6875c.110915-.113676.850367-.848179.9375-.9375l.375.375 3.03125-8.34375-.5625-.5625c-.74135-.759594-1.76329-1.201919-2.8125-1.21875z" fill="url(#k)" filter="url(#n)" opacity=".409524" transform="matrix(1.0320437 0 0 -1.0327501 30.782337 169.49087)"/><path d="m99.40625 24.03125c-.149888-.0024-.286582.01658-.4375.03125-.827192.08205-1.59533.427082-2.21875.96875l1.6875 9.6875c.110915-.113676.850367-.848179.9375-.9375l.375.375 3.03125-8.34375-.5625-.5625c-.74135-.759594-1.76329-1.201919-2.8125-1.21875z" fill="url(#g)" filter="url(#o)" opacity=".238095" transform="matrix(-.3529798 .9704677 .969804 .3532214 28.934783 -26.683195)"/><path d="m28.406226 44.03125c-.149888-.0024-.286582.01658-.4375.03125-.827192.08205-1.59533.427082-2.21875.96875l1.6875 9.6875c.110915-.113676.850367-.848179.9375-.9375l.375.375 3.03125-8.34375-.5625-.5625c-.74135-.759594-1.76329-1.201919-2.8125-1.21875z" fill="url(#h)" filter="url(#n)" opacity=".77619" transform="matrix(1.0320437 0 0 1.0327501 3.9492 16.902265)"/><path d="m99.40625 24.03125c-.149888-.0024-.286582.01658-.4375.03125-.827192.08205-1.59533.427082-2.21875.96875l1.6875 9.6875c.110915-.113676.850367-.848179.9375-.9375l.375.375 3.03125-8.34375-.5625-.5625c-.74135-.759594-1.76329-1.201919-2.8125-1.21875z" fill="url(#g)" filter="url(#o)" opacity=".371429" transform="matrix(.3529798 .9704677 -.969804 .3532214 111.83222 -47.338197)"/><path d="m99.40625 24.03125c-.149888-.0024-.286582.01658-.4375.03125-.827192.08205-1.59533.427082-2.21875.96875l1.6875 9.6875c.110915-.113676.850367-.848179.9375-.9375l.375.375 3.03125-8.34375-.5625-.5625c-.74135-.759594-1.76329-1.201919-2.8125-1.21875z" fill="url(#g)" filter="url(#n)" opacity=".871429" transform="matrix(1.0320437 0 0 1.0327501 3.949175 16.902265)"/><path d="m60.086153 93.485105c-8.409091-8.623758-26.588686-27.269024-26.588686-27.269024l-13.035596 13.372046 39.624282 40.643723 59.451927-60.986832-13.03738-13.37116s-36.391927 37.331253-46.414547 47.611247z" style="opacity:.285714;fill:none;stroke-width:8;stroke-linecap:round;stroke-linejoin:round;stroke:url(#f)"/><path d="m60.086153 93.485105c-8.409092-8.623758-26.588686-27.269024-26.588686-27.269024l-13.035596 13.372046 39.624282 40.643723 59.451927-60.986833-13.03738-13.371159s-36.391927 37.331254-46.414547 47.611247z" fill="url(#c)"/><path d="m106.50852 45.883814s-36.387094 37.32333-46.409714 47.603323c-8.409091-8.623757-26.607378-27.271056-26.607378-27.271056l-13.029552 13.361204 16.99647 17.427657c.194964.000503.385342 0 .580525 0 18.09152 0 35.230146-2.161689 50.602395-6.035133l30.896814-31.724792z" fill="url(#e)"/><path d="m106.50852 45.883814s-.41306.445467-.41926.451828l12.57803 12.683462-30.961313 31.208416c-15.405523 3.808403-32.052449 6.42241-50.183128 6.422414-.130404 0-.258105-.000001-.387016 0l.322513.355008c.194965.000503.385342 0 .580525 0 18.09152 0 35.230146-2.161689 50.602395-6.035133l30.896804-31.724792z" fill="url(#i)"/><path d="m106.50852 45.883814s-36.387094 37.32333-46.409714 47.603323c-8.409091-8.623757-26.607378-27.271056-26.607378-27.271056l-13.029552 13.361204.516022.516374 12.51353-12.844828s18.198287 18.647298 26.607378 27.271056c10.02262-10.279993 46.409714-47.603323 46.409714-47.603323l12.51353 12.844829.51602-.516376z" fill="url(#j)"/></g><g fill="url(#a)" stroke-width="1.779494"><path d="m64.915783 46.350572v1.352416h-18.150838v-1.352416q2.847191-.07118 3.914887-.569438 1.067696-.498258 1.067696-1.850673 0-1.708315-1.352415-4.769044l-2.91837-6.833257h-18.649096l-3.274269 8.328032q-.569438 1.494775-.569438 2.77601 0 2.91837 4.840223 2.91837v1.352416h-14.093591v-1.352416q2.633651-.142359 4.057246-1.993033 1.494775-1.921853 4.769043-9.680447l14.80539-34.94925998h1.423595l17.723759 40.43010198q1.708314 3.914886 2.84719 4.982582 1.138876 1.067697 3.558988 1.210056zm-34.87808-16.940782h16.442523l-8.256851-19.5744326z"/><path d="m88.970093 3.2156401h-7.473875q-1.565954 0-1.565954 2.4201117v14.0224122h4.911403q4.697864 0 8.256852.996516 3.630167.925337 5.6232 2.348932 2.064211 1.423595 3.274271 3.487808 1.28123 1.993034 1.70831 3.843707.42708 1.779494.42708 3.772527 0 3.274269-1.28123 5.83674-1.28124 2.491292-3.203094 3.914887-1.850674 1.423595-4.484324 2.348932-2.633651.925337-4.982583 1.210056-2.277753.284719-4.697864.284719h-18.791456v-1.352416q3.986066-.427078 4.982583-1.494775.996517-1.067696.996517-4.911403v-30.8208342q0-4.4843246-.996517-5.6232007-.925337-1.2100559-4.982583-1.5659546v-1.35241541h34.878081l.42708 12.10055891h-1.70832q-1.281232-5.9790999-3.345445-7.687414-1.993033-1.7794939-7.972132-1.7794939zm-9.039829 39.4335849q0 1.423595.498258 1.921853.498258.498259 1.921853.498259 14.022412 0 14.022412-11.388761 0-5.267302-3.203089-8.185672-3.131909-2.98955-9.182188-2.98955-1.565955 0-4.057246.213539z"/></g></g></svg>

<?xml version="1.0" encoding="UTF-8" standalone="no"?>
<svg
   xmlns:dc="http://purl.org/dc/elements/1.1/"
   xmlns:cc="http://creativecommons.org/ns#"
   xmlns:rdf="http://www.w3.org/1999/02/22-rdf-syntax-ns#"
   xmlns:svg="http://www.w3.org/2000/svg"
   xmlns="http://www.w3.org/2000/svg"
   xmlns:xlink="http://www.w3.org/1999/xlink"
   xmlns:sodipodi="http://sodipodi.sourceforge.net/DTD/sodipodi-0.dtd"
   xmlns:inkscape="http://www.inkscape.org/namespaces/inkscape"
   enable-background="new"
   height="16"
   width="16"
   version="1.1"
   id="svg94"
   sodipodi:docname="sc_spelling.svg"
   inkscape:version="0.92.4 (unknown)"
   inkscape:export-filename="/home/rizmut/Dokumen/Rizmut/Github/libreoffice-style-karasa-jaga/build/next/cmd/bg/sc_spelling.png"
   inkscape:export-xdpi="96"
   inkscape:export-ydpi="96">
  <metadata
     id="metadata100">
    <rdf:RDF>
      <cc:Work
         rdf:about="">
        <dc:format>image/svg+xml</dc:format>
        <dc:type
           rdf:resource="http://purl.org/dc/dcmitype/StillImage" />
        <dc:title></dc:title>
      </cc:Work>
    </rdf:RDF>
  </metadata>
  <defs
     id="defs98">
    <linearGradient
       id="a-5"
       gradientUnits="userSpaceOnUse"
       x1="49.410835"
       x2="55.622147"
       y1="67.766502"
       y2="-0.557908">
      <stop
         offset="0"
         stop-color="#555"
         id="stop2-3" />
      <stop
         offset="1"
         id="stop4-5" />
    </linearGradient>
    <linearGradient
       inkscape:collect="always"
       xlink:href="#a-5"
       id="linearGradient1005"
       x1="43.635464"
       y1="47.218502"
       x2="43.635464"
       y2="6.4912291"
       gradientUnits="userSpaceOnUse"
       gradientTransform="translate(10.951114)" />
    <linearGradient
       inkscape:collect="always"
       xlink:href="#a-5"
       id="linearGradient931"
       x1="43.635464"
       y1="47.218502"
       x2="43.635464"
       y2="6.4912291"
       gradientUnits="userSpaceOnUse"
       gradientTransform="matrix(1.1459755,0,0,1.1459755,21.613291,-6.7965576)" />
    <linearGradient
       inkscape:collect="always"
       xlink:href="#a-5"
       id="linearGradient963"
       x1="43.635464"
       y1="47.218502"
       x2="43.635464"
       y2="6.4912291"
       gradientUnits="userSpaceOnUse"
       gradientTransform="matrix(1.1459755,0,0,1.1459755,18.545167,-6.7965622)" />
  </defs>
  <sodipodi:namedview
     pagecolor="#ffffff"
     bordercolor="#666666"
     borderopacity="1"
     objecttolerance="10"
     gridtolerance="10"
     guidetolerance="10"
     inkscape:pageopacity="0"
     inkscape:pageshadow="2"
     inkscape:window-width="1366"
     inkscape:window-height="714"
     id="namedview96"
     showgrid="true"
     inkscape:zoom="41.7193"
     inkscape:cx="8.1383239"
     inkscape:cy="12.280439"
     inkscape:window-x="0"
     inkscape:window-y="28"
     inkscape:window-maximized="1"
     inkscape:current-layer="g92">
    <inkscape:grid
       type="xygrid"
       id="grid907" />
  </sodipodi:namedview>
  <linearGradient
     id="a"
     gradientUnits="userSpaceOnUse"
     x1="56"
     x2="56"
     y1="64"
     y2="8.000001">
    <stop
       offset="0"
       stop-color="#555"
       id="stop2" />
    <stop
       offset="1"
       id="stop4" />
  </linearGradient>
  <linearGradient
     id="b">
    <stop
       offset="0"
       stop-color="#fff"
       id="stop7" />
    <stop
       offset="1"
       stop-color="#fff"
       stop-opacity="0"
       id="stop9" />
  </linearGradient>
  <radialGradient
     id="c"
     cx="54.537579"
     cy="77.542084"
     fy="99.883759"
     gradientTransform="matrix(1.3537573 .00000006 -.00000005 1.0160126 -13.498529 18.259014)"
     gradientUnits="userSpaceOnUse"
     r="48.000004">
    <stop
       offset="0"
       stop-color="#66f515"
       id="stop12" />
    <stop
       offset="1"
       stop-color="#002e00"
       id="stop14" />
  </radialGradient>
  <linearGradient
     id="d"
     gradientTransform="matrix(1.0320438 0 0 1.0327501 3.9492 21.033265)"
     gradientUnits="userSpaceOnUse"
     x1="89.090881"
     x2="89.090881"
     y1="103.89701"
     y2="30.849478">
    <stop
       offset="0"
       stop-color="#003100"
       id="stop17" />
    <stop
       offset="1"
       stop-color="#008c00"
       id="stop19" />
  </linearGradient>
  <linearGradient
     id="e"
     gradientTransform="matrix(1.0320437 0 0 1.0327501 3.949175 21.033265)"
     gradientUnits="userSpaceOnUse"
     x1="83.324677"
     x2="83.324677"
     y1="24.0625"
     y2="89.99453">
    <stop
       offset="0"
       stop-color="#bfffbf"
       id="stop22" />
    <stop
       offset="1"
       stop-color="#bfffbf"
       stop-opacity="0"
       id="stop24" />
  </linearGradient>
  <radialGradient
     id="f"
     cx="52.791927"
     cy="95.459297"
     fx="53.15992"
     fy="87.08094"
     gradientTransform="matrix(.5827558 .00000009 -.00000014 .9476925 29.156011 17.050894)"
     gradientUnits="userSpaceOnUse"
     r="52.000004">
    <stop
       offset="0"
       stop-color="#001400"
       id="stop27" />
    <stop
       offset="1"
       stop-color="#001400"
       stop-opacity="0"
       id="stop29" />
  </radialGradient>
  <radialGradient
     id="g"
     cx="99.765625"
     cy="29.374895"
     gradientTransform="matrix(1.9646726 .00000034 -.00000104 5.9752716 -96.241137 -146.14811)"
     gradientUnits="userSpaceOnUse"
     r="3.015625"
     xlink:href="#b" />
  <radialGradient
     id="h"
     cx="99.765625"
     cy="29.374895"
     gradientTransform="matrix(1.9646726 .00000034 -.00000104 5.9752716 -167.24116 -126.14811)"
     gradientUnits="userSpaceOnUse"
     r="3.015625"
     xlink:href="#b" />
  <linearGradient
     id="i"
     gradientTransform="matrix(1.0320437 0 0 1.0327501 3.949175 16.902265)"
     gradientUnits="userSpaceOnUse"
     x1="87.533279"
     x2="77.137749"
     xlink:href="#b"
     y1="74.838577"
     y2="46.277084" />
  <linearGradient
     id="j"
     gradientTransform="matrix(1.0320437 0 0 1.0327501 3.949175 21.033265)"
     gradientUnits="userSpaceOnUse"
     x1="83.324677"
     x2="83.324677"
     xlink:href="#b"
     y1="24.0625"
     y2="69.837845" />
  <radialGradient
     id="k"
     cx="99.765625"
     cy="29.374895"
     gradientTransform="matrix(1.9646726 .00000034 -.00000104 5.9752716 -167.24116 -126.14811)"
     gradientUnits="userSpaceOnUse"
     r="3.015625">
    <stop
       offset="0"
       stop-color="#f0ff80"
       id="stop36" />
    <stop
       offset="1"
       stop-color="#f0ff80"
       stop-opacity="0"
       id="stop38" />
  </radialGradient>
  <radialGradient
     id="l"
     cx="53.633381"
     cy="51.919601"
     gradientTransform="matrix(1.0961401 .0879121 -.1002304 1.2497316 1.059933 -18.687387)"
     gradientUnits="userSpaceOnUse"
     r="52.000004"
     xlink:href="#b" />
  <filter
     id="m">
    <feBlend
       in2="BackgroundImage"
       mode="lighten"
       id="feBlend42" />
  </filter>
  <filter
     id="n"
     height="1.205783"
     width="1.364658"
     x="-.182329"
     y="-.102891">
    <feGaussianBlur
       stdDeviation=".45819706"
       id="feGaussianBlur45" />
  </filter>
  <filter
     id="o"
     height="1.37026"
     width="1.20766"
     x="-.10383"
     y="-.18513">
    <feGaussianBlur
       stdDeviation=".45819702"
       id="feGaussianBlur48" />
  </filter>
  <filter
     id="p">
    <feGaussianBlur
       stdDeviation="1.5891116"
       id="feGaussianBlur51" />
  </filter>
  <g
     transform="matrix(.125 0 0 .125 .000003 0)"
     id="g92">
    <g
       transform="matrix(.90735169 0 0 .90735169 11.469223 16.237221)"
       id="g84">
      <g
         fill="none"
         stroke-linecap="round"
         stroke-linejoin="round"
         id="g62">
        <path
           d="m54.393966 74.154282c-8.147999-8.350285-25.763139-26.404282-25.763139-26.404282l-12.630855 12.947999 38.393994 39.354851 57.606014-59.05285-12.632583-12.94714s-35.262002 36.147423-44.973431 46.101422z"
           filter="url(#p)"
           opacity=".502762"
           stroke="#004d00"
           stroke-width="11.526575"
           transform="matrix(1.0320437 0 0 1.0327501 3.9492 16.902265)"
           id="path56" />
        <path
           d="m54.393966 74.154282c-8.147999-8.350285-25.763139-26.404282-25.763139-26.404282l-12.630855 12.947999 38.393994 39.354851 57.606014-59.05285-12.632583-12.94714s-35.262002 36.147423-44.973431 46.101422z"
           filter="url(#m)"
           opacity=".285714"
           stroke="url(#l)"
           stroke-width="7.748958"
           transform="matrix(1.0320437 0 0 1.0327501 3.9492 16.902265)"
           id="path58" />
        <path
           d="m60.086153 93.485105c-8.409091-8.623758-26.588686-27.269024-26.588686-27.269024l-13.035596 13.372046 39.624282 40.643723 59.451927-60.986832-13.03738-13.37116s-36.391927 37.331253-46.414547 47.611247z"
           stroke="url(#d)"
           stroke-width="8"
           id="path60" />
      </g>
      <path
         d="m28.406226 44.03125c-.149888-.0024-.286582.01658-.4375.03125-.827192.08205-1.59533.427082-2.21875.96875l1.6875 9.6875c.110915-.113676.850367-.848179.9375-.9375l.375.375 3.03125-8.34375-.5625-.5625c-.74135-.759594-1.76329-1.201919-2.8125-1.21875z"
         fill="url(#k)"
         filter="url(#n)"
         opacity=".409524"
         transform="matrix(1.0320437 0 0 -1.0327501 30.782337 169.49087)"
         id="path64" />
      <path
         d="m99.40625 24.03125c-.149888-.0024-.286582.01658-.4375.03125-.827192.08205-1.59533.427082-2.21875.96875l1.6875 9.6875c.110915-.113676.850367-.848179.9375-.9375l.375.375 3.03125-8.34375-.5625-.5625c-.74135-.759594-1.76329-1.201919-2.8125-1.21875z"
         fill="url(#g)"
         filter="url(#o)"
         opacity=".238095"
         transform="matrix(-.3529798 .9704677 .969804 .3532214 28.934783 -26.683195)"
         id="path66" />
      <path
         d="m28.406226 44.03125c-.149888-.0024-.286582.01658-.4375.03125-.827192.08205-1.59533.427082-2.21875.96875l1.6875 9.6875c.110915-.113676.850367-.848179.9375-.9375l.375.375 3.03125-8.34375-.5625-.5625c-.74135-.759594-1.76329-1.201919-2.8125-1.21875z"
         fill="url(#h)"
         filter="url(#n)"
         opacity=".77619"
         transform="matrix(1.0320437 0 0 1.0327501 3.9492 16.902265)"
         id="path68" />
      <path
         d="m99.40625 24.03125c-.149888-.0024-.286582.01658-.4375.03125-.827192.08205-1.59533.427082-2.21875.96875l1.6875 9.6875c.110915-.113676.850367-.848179.9375-.9375l.375.375 3.03125-8.34375-.5625-.5625c-.74135-.759594-1.76329-1.201919-2.8125-1.21875z"
         fill="url(#g)"
         filter="url(#o)"
         opacity=".371429"
         transform="matrix(.3529798 .9704677 -.969804 .3532214 111.83222 -47.338197)"
         id="path70" />
      <path
         d="m99.40625 24.03125c-.149888-.0024-.286582.01658-.4375.03125-.827192.08205-1.59533.427082-2.21875.96875l1.6875 9.6875c.110915-.113676.850367-.848179.9375-.9375l.375.375 3.03125-8.34375-.5625-.5625c-.74135-.759594-1.76329-1.201919-2.8125-1.21875z"
         fill="url(#g)"
         filter="url(#n)"
         opacity=".871429"
         transform="matrix(1.0320437 0 0 1.0327501 3.949175 16.902265)"
         id="path72" />
      <path
         d="m60.086153 93.485105c-8.409091-8.623758-26.588686-27.269024-26.588686-27.269024l-13.035596 13.372046 39.624282 40.643723 59.451927-60.986832-13.03738-13.37116s-36.391927 37.331253-46.414547 47.611247z"
         style="opacity:.285714;fill:none;stroke-width:8;stroke-linecap:round;stroke-linejoin:round;stroke:url(#f)"
         id="path74" />
      <path
         d="m60.086153 93.485105c-8.409092-8.623758-26.588686-27.269024-26.588686-27.269024l-13.035596 13.372046 39.624282 40.643723 59.451927-60.986833-13.03738-13.371159s-36.391927 37.331254-46.414547 47.611247z"
         fill="url(#c)"
         id="path76" />
      <path
         d="m106.50852 45.883814s-36.387094 37.32333-46.409714 47.603323c-8.409091-8.623757-26.607378-27.271056-26.607378-27.271056l-13.029552 13.361204 16.99647 17.427657c.194964.000503.385342 0 .580525 0 18.09152 0 35.230146-2.161689 50.602395-6.035133l30.896814-31.724792z"
         fill="url(#e)"
         id="path78" />
      <path
         d="m106.50852 45.883814s-.41306.445467-.41926.451828l12.57803 12.683462-30.961313 31.208416c-15.405523 3.808403-32.052449 6.42241-50.183128 6.422414-.130404 0-.258105-.000001-.387016 0l.322513.355008c.194965.000503.385342 0 .580525 0 18.09152 0 35.230146-2.161689 50.602395-6.035133l30.896804-31.724792z"
         fill="url(#i)"
         id="path80" />
      <path
         d="m106.50852 45.883814s-36.387094 37.32333-46.409714 47.603323c-8.409091-8.623757-26.607378-27.271056-26.607378-27.271056l-13.029552 13.361204.516022.516374 12.51353-12.844828s18.198287 18.647298 26.607378 27.271056c10.02262-10.279993 46.409714-47.603323 46.409714-47.603323l12.51353 12.844829.51602-.516376z"
         fill="url(#j)"
         id="path82" />
    </g>
    <g
       aria-label="АБ"
       style="font-style:normal;font-weight:normal;font-size:71.17975616px;line-height:1.25;font-family:sans-serif;letter-spacing:0px;word-spacing:0px;fill:url(#linearGradient931);fill-opacity:1;stroke:none;stroke-width:1.77949417"
       id="text923">
      <path
         d="m 64.915783,46.350572 v 1.352416 H 46.764945 v -1.352416 q 2.847191,-0.07118 3.914887,-0.569438 1.067696,-0.498258 1.067696,-1.850673 0,-1.708315 -1.352415,-4.769044 L 47.476743,32.32816 H 28.827647 l -3.274269,8.328032 q -0.569438,1.494775 -0.569438,2.77601 0,2.91837 4.840223,2.91837 v 1.352416 H 15.730572 v -1.352416 q 2.633651,-0.142359 4.057246,-1.993033 1.494775,-1.921853 4.769043,-9.680447 l 14.80539,-34.94925998 h 1.423595 L 58.509605,40.157934 q 1.708314,3.914886 2.84719,4.982582 1.138876,1.067697 3.558988,1.210056 z M 30.037703,29.40979 H 46.480226 L 38.223375,9.8353574 Z"
         style="font-style:normal;font-variant:normal;font-weight:normal;font-stretch:normal;font-family:FreeSerif;-inkscape-font-specification:FreeSerif;fill:url(#linearGradient931);fill-opacity:1;stroke-width:1.77949417"
         id="path991" />
      <path
         d="m 88.970093,3.2156401 h -7.473875 q -1.565954,0 -1.565954,2.4201117 V 19.658164 h 4.911403 q 4.697864,0 8.256852,0.996516 3.630167,0.925337 5.6232,2.348932 2.064211,1.423595 3.274271,3.487808 1.28123,1.993034 1.70831,3.843707 0.42708,1.779494 0.42708,3.772527 0,3.274269 -1.28123,5.83674 -1.28124,2.491292 -3.203094,3.914887 -1.850674,1.423595 -4.484324,2.348932 -2.633651,0.925337 -4.982583,1.210056 -2.277753,0.284719 -4.697864,0.284719 H 66.690829 v -1.352416 q 3.986066,-0.427078 4.982583,-1.494775 0.996517,-1.067696 0.996517,-4.911403 V 9.1235598 q 0,-4.4843246 -0.996517,-5.6232007 Q 70.748075,2.2903032 66.690829,1.9344045 V 0.58198909 h 34.878081 l 0.42708,12.10055891 h -1.70832 Q 99.006438,6.7034481 96.942225,4.995134 94.949192,3.2156401 88.970093,3.2156401 Z M 79.930264,42.649225 q 0,1.423595 0.498258,1.921853 0.498258,0.498259 1.921853,0.498259 14.022412,0 14.022412,-11.388761 0,-5.267302 -3.203089,-8.185672 -3.131909,-2.98955 -9.182188,-2.98955 -1.565955,0 -4.057246,0.213539 z"
         style="font-style:normal;font-variant:normal;font-weight:normal;font-stretch:normal;font-family:FreeSerif;-inkscape-font-specification:FreeSerif;fill:url(#linearGradient931);fill-opacity:1;stroke-width:1.77949417"
         id="path993" />
    </g>
  </g>
</svg>
